X:1
T:O Come, My Soul, Sing Praise to God
T:Text: Psalm 103; vers. Psalter, 1912, alt. Tune: James Walch, 1875
T:11 10 11 10 with refrain TIDINGS www.hymnary.org/text/o_come_my_soul_bless_thou_the_lord
T:O Come, My Soul, Sing Praise to God
T:This hymn is in the public domain. You may freely use this score for personal and congregational worship. If you reproduce the score, please credit Hymnary.org as the source. 
T:This hymn is in the public domain. You may freely use this score for personal and congregational worship. If you reproduce the score, please credit Hymnary.org as the source. 
T:This hymn is in the public domain. You may freely use this score for personal and congregational worship. If you reproduce the score, please credit Hymnary.org as the source. 
Z:This hymn is in the public domain. You may freely use this score for personal and congregational worship. If you reproduce the score, please credit Hymnary.org as the source.
%%score ( 1 2 ) ( 3 4 )
L:1/8
M:4/4
K:Bb
V:1 treble nm="SOPRANO ALTO" snm="S. A."
V:2 treble 
V:3 bass nm="TENOR BASS" snm="T. B."
V:4 bass 
V:1
"^1""^2""^3""^4""^5" B4 D2 E2 | F6 F2 | F2 B2 d2 c2 | c4 B4 | B4 A2 G2 | F6 F2 | A2 G2 F2 E2 | D8 | %8
w: O come, my|soul, sing|praise to God our|Mak- er,|and all with-|in me,|praise his ho- ly|name.|
w: Good is the|Lord and|full of kind com-|pas- sion,|most slow to|an- ger,|plen- te- ous in|love.|
w: His love is|like a|fa- ther's to his|child- ren,|ten- der and|kind to|all who fear his|name;|
w: We fade and|die like|flowers that grow in|beau- ty,|like ten- der|grass that|soon will dis- ap-|pear;|
w: High in the|heavens his|throne is fixed for-|ev- er;|his king- dom|rules o'er|all from pole to|pole.|
 D4 E3 E | F6 F2 | ^F2 G2 B2 A2 | A4 G4 |1 G4 A2 B2 | c4 F4 | A2 G2 F2 =E2 | F8 || %16
w: Sing praise to|God, for-|get not all his|mer- cies;|his par- doning|grace and|sav- ing love pro-|claim.|
w: Rich is his|grace to|all who hum- bly|seek him,|bound- less and|end- less|as the heavens a-|bove.|
w: for well he|knows our|weak- ness and our|frail- ty;|he knows that|we are|dust, he knows our|frame.|
w: but ev- er-|more the|love of God is|change- less,|still shown to|those who|look to him in|fear.|
w: Praise to the|Lord through|all his wide do-|min- ion;|for- ev- er|praise his|ho- ly name, my|soul.|
"^Page 2""^Refrain" A4 G2 F2 | B4 F4 | A4"^O Come, My Soul, Sing Praise to God" G2 F2 | d8 | %20
w: Praise him, all|an- gels,|won- drous in|might;|
w: ||||
w: ||||
w: ||||
w: ||||
 d4 e2 d2 | (d2 c2) B2 G2 | F2 B2 c3 B | B8 |] %24
w: praise him, you|ser- * vants who|in his will de-|light.|
w: ||||
w: ||||
w: ||||
w: ||||
V:2
 D4 B,2 B,2 | B,6 E2 | D2 F2 F2 E2 | E4 D4 | G4 F2 E2 | D6 F2 | E3 D C2 C2 | B,8 | B,4 C3 C | %9
 D6 D2 | D2 D2 ^F2 F2 | ^F4 G4 |1 =E4 F2 E2 | F4 F4 | D2 D2 C2 C2 | C8 || E4 E2 E2 | D4 F4 | %18
 E4 E2 E2 | D8 | F4 F2 F2 | E4 G2 E2 | D2 F2 E3 D | D8 |] %24
V:3
 F,4 F,2 F,2 | F,6 A,2 | B,2 B,2 B,2 A,2 | A,4 B,4 | B,4 B,2 B,2 | B,6 B,2 | C2 B,2 A,2 A,2 | F,8 | %8
 B,4 A,3 G, | F,6 B,2 | A,2 B,2 D2 C2 | C4 B,4 |1 B,4 C2 C2 | C4 A,4 | C2 B,2 A,2 G,2 | A,8 || %16
 C4 B,2 A,2 | B,4 B,4 | C4 B,2 A,2 | B,8 | =B,4 B,2 B,2 | G,4 G,2 B,2 | B,2 D2 A,3 B, | B,8 |] %24
V:4
 B,,4 B,,2 C,2 | D,6 C,2 | B,,2 D,2 F,2 F,2 | F,4 G,4 | E,4 E,2 E,2 | B,,6 D,2 | %6
 F,2 F,2 F,,2 F,,2 | B,,8 | B,,4 B,,3 B,, | B,,6 B,,2 | D,2 D,2 D,2 D,2 | D,4 G,,4 |1 %12
 C,4 C,2 B,,2 | A,,4 D,4 | B,,2 B,,2 C,2 C,2 | F,,8 || F,4 F,2 F,2 | B,,4 D,4 | F,4 F,2 F,2 | %19
 (B,,4 _A,4) | G,4 G,2 G,2 | C,4 E,2 E,2 | F,2 F,2 F,,3 B,, | B,,8 |] %24

